media/timer.svg

<?xml version="1.0" encoding="UTF-8" standalone="no"?>
<!-- Svg Vector Icons : http://www.onlinewebfonts.com/icon -->

<svg
   xmlns:dc="http://purl.org/dc/elements/1.1/"
   xmlns:cc="http://creativecommons.org/ns#"
   xmlns:rdf="http://www.w3.org/1999/02/22-rdf-syntax-ns#"
   xmlns:svg="http://www.w3.org/2000/svg"
   xmlns="http://www.w3.org/2000/svg"
   xmlns:sodipodi="http://sodipodi.sourceforge.net/DTD/sodipodi-0.dtd"
   xmlns:inkscape="http://www.inkscape.org/namespaces/inkscape"
   version="1.1"
   x="0px"
   y="0px"
   viewBox="0 0 1000 1000"
   enable-background="new 0 0 1000 1000"
   xml:space="preserve"
   id="svg4229"
   inkscape:version="0.91 r13725"
   sodipodi:docname="6a883bf061b1fa6593223b94c0ed03da.svg"><defs
     id="defs4241" /><sodipodi:namedview
     pagecolor="#ffffff"
     bordercolor="#666666"
     borderopacity="1"
     objecttolerance="10"
     gridtolerance="10"
     guidetolerance="10"
     inkscape:pageopacity="0"
     inkscape:pageshadow="2"
     inkscape:window-width="706"
     inkscape:window-height="480"
     id="namedview4239"
     showgrid="false"
     inkscape:zoom="0.236"
     inkscape:cx="611.80663"
     inkscape:cy="500"
     inkscape:window-x="49"
     inkscape:window-y="24"
     inkscape:window-maximized="0"
     inkscape:current-layer="svg4229" /><metadata
     id="metadata4231"> Svg Vector Icons : http://www.onlinewebfonts.com/icon <rdf:RDF><cc:Work
     rdf:about=""><dc:format>image/svg+xml</dc:format><dc:type
       rdf:resource="http://purl.org/dc/dcmitype/StillImage" /></cc:Work></rdf:RDF></metadata><g
     id="g4233"
     style="fill:#ffffff"><path
       d="M451.8,534c0.8,1,1.8,1.8,2.7,2.7c10.8,13.4,27.1,22.1,45.6,22.1c32.5,0,58.8-26.3,58.8-58.8c0-17.3-7.6-32.6-19.4-43.4c-1.5-1.7-2.9-3.5-5.2-5.2L296.7,270.6c-6.9-5.3-16.9-5.6-24.1,0c-8.6,6.7-10.3,19.1-3.6,27.7L451.8,534L451.8,534z"
       id="path4235"
       style="fill:#ffffff" /><path
       d="M500.1,10c-6.4,0-12.7,0.7-19.1,1v20.3h-0.6v213.8h39.2V50.2C759.1,60.6,950.8,258.1,950.8,500c0,248.6-202.2,450.8-450.8,450.8S49.2,748.6,49.2,500c0-124.3,50.6-237,132.2-318.6l-27.9-27.9C64.9,242.2,10,364.7,10,500c0,270.6,219.3,490,490,490c270.7,0,490-219.3,490-490C990,229.4,770.7,10,500.1,10L500.1,10z"
       id="path4237"
       style="fill:#ffffff" /></g></svg>

<?xml version="1.0" encoding="UTF-8" standalone="no"?>
<!-- Svg Vector Icons : http://www.onlinewebfonts.com/icon -->

<svg
   xmlns:dc="http://purl.org/dc/elements/1.1/"
   xmlns:cc="http://creativecommons.org/ns#"
   xmlns:rdf="http://www.w3.org/1999/02/22-rdf-syntax-ns#"
   xmlns:svg="http://www.w3.org/2000/svg"
   xmlns="http://www.w3.org/2000/svg"
   xmlns:sodipodi="http://sodipodi.sourceforge.net/DTD/sodipodi-0.dtd"
   xmlns:inkscape="http://www.inkscape.org/namespaces/inkscape"
   version="1.1"
   x="0px"
   y="0px"
   viewBox="0 0 28 28"
   enable-background="new 0 0 1000 1000"
   xml:space="preserve"
   id="svg4229"
   inkscape:version="0.91 r13725"
   sodipodi:docname="timer.svg"
   width="28"
   height="28"><defs
     id="defs4241" /><sodipodi:namedview
     pagecolor="#ffffff"
     bordercolor="#666666"
     borderopacity="1"
     objecttolerance="10"
     gridtolerance="10"
     guidetolerance="10"
     inkscape:pageopacity="0"
     inkscape:pageshadow="2"
     inkscape:window-width="706"
     inkscape:window-height="480"
     id="namedview4239"
     showgrid="false"
     inkscape:zoom="1.888"
     inkscape:cx="47.715541"
     inkscape:cy="-28.02823"
     inkscape:window-x="49"
     inkscape:window-y="24"
     inkscape:window-maximized="0"
     inkscape:current-layer="svg4229" /><metadata
     id="metadata4231"> Svg Vector Icons : http://www.onlinewebfonts.com/icon <rdf:RDF><cc:Work
     rdf:about=""><dc:format>image/svg+xml</dc:format><dc:type
       rdf:resource="http://purl.org/dc/dcmitype/StillImage" /><dc:title></dc:title></cc:Work></rdf:RDF></metadata><g
     id="g4233"
     style="fill:#ffffff"
     transform="matrix(0.02715323,0,0,0.02706542,0.72423035,0.65307378)"><path
       d="m 451.8,534 c 0.8,1 1.8,1.8 2.7,2.7 10.8,13.4 27.1,22.1 45.6,22.1 32.5,0 58.8,-26.3 58.8,-58.8 0,-17.3 -7.6,-32.6 -19.4,-43.4 -1.5,-1.7 -2.9,-3.5 -5.2,-5.2 L 296.7,270.6 c -6.9,-5.3 -16.9,-5.6 -24.1,0 -8.6,6.7 -10.3,19.1 -3.6,27.7 l 182.8,235.7 0,0 z"
       id="path4235"
       style="fill:#ffffff"
       inkscape:connector-curvature="0" /><path
       d="m 500.1,10 c -6.4,0 -12.7,0.7 -19.1,1 l 0,20.3 -0.6,0 0,213.8 39.2,0 0,-194.9 C 759.1,60.6 950.8,258.1 950.8,500 950.8,748.6 748.6,950.8 500,950.8 251.4,950.8 49.2,748.6 49.2,500 49.2,375.7 99.8,263 181.4,181.4 L 153.5,153.5 C 64.9,242.2 10,364.7 10,500 10,770.6 229.3,990 500,990 770.7,990 990,770.7 990,500 990,229.4 770.7,10 500.1,10 l 0,0 z"
       id="path4237"
       style="fill:#ffffff"
       inkscape:connector-curvature="0" /></g></svg>
